logo/numpy.svg

<?xml version="1.0" encoding="UTF-8"?>
<svg width="256px" height="274px" viewBox="0 0 256 274" version="1.1" xmlns="http://www.w3.org/2000/svg" xmlns:xlink="http://www.w3.org/1999/xlink" preserveAspectRatio="xMidYMid">
    <g>
        <path d="M191.54779,186.292389 L191.607285,246.81213 L137.903038,273.611369 L137.903038,213.11807 L191.54779,186.292389 Z M256.000818,153.946885 L256.000818,214.678164 L210.196199,237.537504 L210.163146,177.083869 L256.000818,153.946885 Z M191.468463,105.286501 L191.527958,165.171627 L137.903038,191.818823 L137.903038,131.913865 L191.468463,105.286501 Z M256.000818,73.2054191 L256.000818,132.713743 L210.149925,156.022603 L210.110262,96.0184858 L256.000818,73.2054191 Z M129.738988,66.1651652 L177.67221,90.3598405 L127.940914,115.334563 L80.9133402,91.7150067 L129.738988,66.1651652 Z M63.0648093,32.5107686 L108.783491,55.588258 L59.8454631,81.1314889 L12.8906057,57.5515964 L63.0648093,32.5107686 Z M193.755719,32.8611286 L242.997833,57.5515964 L198.958235,79.6705536 L150.925855,55.4428255 L193.755719,32.8611286 Z M128.231779,3.55271368e-15 L172.562241,22.2247263 L130.056295,44.9188028 L84.3772773,21.8809768 L128.231779,3.55271368e-15 Z" fill="#4DABCF"></path>
        <path d="M118.943932,131.913865 L82.7709095,113.728195 L82.7709095,192.334447 C82.7709095,192.334447 38.5329951,98.2065835 34.4344436,89.7516683 C33.9055982,88.6609247 31.7307216,87.4644121 31.175434,87.1735472 C23.2427536,83.0088899 0,71.2354701 0,71.2354701 L0,210.110262 L32.1537979,227.297736 L32.1537979,154.7071 C32.1537979,154.7071 75.9223621,238.813344 76.3652701,239.732213 C76.8081781,240.651081 81.2042052,249.515852 85.8977077,252.629429 C92.1513041,256.767644 118.950543,272.884206 118.950543,272.884206 L118.943932,131.913865 Z" fill="#4D77CF"></path>
    </g>
</svg>

<svg viewBox="0 0 256 274" xmlns="http://www.w3.org/2000/svg"><path fill="#4DABCF" d="M191.54 186.29l.05 60.51 -53.71 26.79v-60.5l53.64-26.83Zm64.45-32.35v60.73l-45.81 22.85 -.04-60.46 45.83-23.14Zm-64.54-48.67l.05 59.88 -53.63 26.64v-59.91l53.56-26.63Zm64.53-32.09v59.5l-45.86 23.3 -.04-60.01 45.89-22.82Zm-126.27-7.05l47.93 24.19 -49.74 24.97 -47.03-23.62 48.82-25.55ZM63.03 32.47l45.71 23.07L59.8 81.08 12.84 57.5l50.17-25.05Zm130.69.35l49.24 24.69 -44.04 22.11 -48.04-24.23L193.7 32.8ZM128.19-.05l44.33 22.22 -42.51 22.69 -45.68-23.04L128.18-.07Z"/><path fill="#4D77CF" d="M118.94 131.91l-36.18-18.19v78.6s-44.24-94.13-48.34-102.59c-.53-1.1-2.71-2.29-3.26-2.58C23.22 82.98-.02 71.21-.02 71.21v138.87l32.15 17.18v-72.6s43.76 84.1 44.21 85.02c.44.91 4.83 9.78 9.53 12.89 6.25 4.13 33.05 20.25 33.05 20.25l-.01-140.98Z"/></svg>
